app/dist/common/images/optimizerx.svg

<svg height="18" viewBox="0 0 18 18" width="18" xmlns="http://www.w3.org/2000/svg"><path d="m0 0h18v18h-18z" fill="#f0f3fa"/><path d="m10.99 7.99-.86.92 1.46 1.57-1.46 1.57.86.92 1.45-1.56v-1.86l-1.44-1.55z" fill="#2e283a"/><path d="m15 8.91-.86-.91-1.44 1.55v1.86l1.45 1.56.86-.92-1.45-1.57zm-7.87-.36h-1.83v-2.02h1.83c.6 0 .97.3.97 1 0 .69-.34 1.02-.97 1.02zm2.37-1.05c0-1.68-1.06-2.5-2.34-2.5h-3.16v8h1.3v-2.96h1.43l1.2 2.96h1.57l-1.3-3.19c.86-.4 1.3-1.13 1.3-2.31z" fill="#729a40"/></svg>

<!-- by TradingView --><svg xmlns="http://www.w3.org/2000/svg" width="18" height="18" viewBox="0 0 18 18"><path fill="#F0F3FA" d="M0 0h18v18H0z"/><path d="m10.99 7.99-.86.92 1.46 1.57-1.46 1.57.86.92 1.45-1.56V9.55L11 8Z" fill="#2E283A"/><path d="M15 8.91 14.14 8 12.7 9.55v1.86l1.45 1.56.86-.92-1.45-1.57L15 8.91ZM7.13 8.55H5.3V6.53h1.83c.6 0 .97.3.97 1 0 .69-.34 1.02-.97 1.02ZM9.5 7.5C9.5 5.82 8.44 5 7.16 5H4v8h1.3v-2.96h1.43L7.93 13H9.5L8.2 9.81c.86-.4 1.3-1.13 1.3-2.31Z" fill="#729A40"/></svg>
